logos/android-vertical.svg

<?xml version="1.0" encoding="UTF-8"?>
<svg width="256px" height="225px" viewBox="0 0 256 225" version="1.1" xmlns="http://www.w3.org/2000/svg" preserveAspectRatio="xMidYMid">
    <title>Android</title>
    <g>
        <path d="M19.2880947,192.986351 C12.6732673,192.986351 8.22216856,198.179299 8.22216856,204.855948 C8.22216856,211.532596 12.6732673,216.725544 19.2880947,216.725544 C25.902922,216.725544 30.3540208,211.532596 30.3540208,204.855948 C30.3540208,198.179299 25.902922,192.986351 19.2880947,192.986351 M17.8043951,185.629674 C23.1209853,185.629674 27.572084,188.34979 29.6739918,191.317189 L29.6739918,186.371523 L37.8343395,186.371523 L37.8343395,223.402192 L31.5904371,223.402192 C30.5394832,223.402192 29.7358126,222.536701 29.7358126,221.547568 L29.7358126,218.456527 C27.6339049,221.423926 23.2446269,224.144042 17.8662159,224.144042 C7.72760203,224.144042 0,215.489128 0,204.917768 C0,194.346409 7.66578121,185.629674 17.8043951,185.629674 M47.107462,186.371523 L55.2678097,186.371523 L55.2678097,191.37901 C57.4933591,187.669761 61.6971746,185.629674 66.5191983,185.629674 C75.1122917,185.629674 80.6761652,191.688114 80.6761652,201.084878 L80.6761652,223.402192 L74.4322627,223.402192 C73.3813089,223.402192 72.5776383,222.536701 72.5776383,221.547568 L72.5776383,202.444936 C72.5776383,196.571958 69.6102391,193.048172 64.8500362,193.048172 C59.4716252,193.048172 55.2678097,197.251987 55.2678097,205.165052 L55.2678097,223.402192 L49.0239073,223.402192 C47.9729534,223.402192 47.1692828,222.536701 47.1692828,221.547568 L47.1692828,186.371523 L47.107462,186.371523 Z M106.393625,192.986351 C99.7787974,192.986351 95.3276986,198.179299 95.3276986,204.855948 C95.3276986,211.532596 99.7787974,216.725544 106.393625,216.725544 C113.008452,216.725544 117.459551,211.532596 117.459551,204.855948 C117.459551,198.179299 113.008452,192.986351 106.393625,192.986351 M104.909925,185.629674 C110.226515,185.629674 114.677614,188.34979 116.779522,191.317189 L116.779522,167.825279 L124.93987,167.825279 L124.93987,223.402192 L118.695967,223.402192 C117.645013,223.402192 116.841343,222.536701 116.841343,221.547568 L116.841343,218.456527 C114.739435,221.423926 110.350157,224.144042 104.971746,224.144042 C94.8331321,224.144042 87.1055301,215.489128 87.1055301,204.917768 C87.1055301,194.346409 94.7713113,185.629674 104.909925,185.629674 M134.212992,186.371523 L142.37334,186.371523 L142.37334,192.986351 C143.795219,188.782535 147.937213,186.000599 152.141029,186.000599 C153.191983,186.000599 154.242936,186.062419 155.29389,186.309703 L155.29389,194.655513 C153.872012,194.222767 152.697416,193.975484 151.213716,193.975484 C146.577155,193.975484 142.311519,197.932016 142.311519,205.288693 L142.311519,223.340372 L136.067617,223.340372 C135.016663,223.340372 134.212992,222.47488 134.212992,221.485747 L134.212992,186.371523 Z M177.24028,216.540082 C183.731466,216.540082 188.368027,211.408954 188.368027,204.855948 C188.368027,198.24112 183.793287,193.171813 177.24028,193.171813 C170.625453,193.171813 166.050712,198.302941 166.050712,204.855948 C166.112533,211.470775 170.687274,216.540082 177.24028,216.540082 M177.24028,224.144042 C166.297996,224.144042 157.828544,215.61277 157.828544,204.917768 C157.828544,194.160946 166.297996,185.629674 177.24028,185.629674 C188.182565,185.629674 196.652016,194.160946 196.652016,204.917768 C196.652016,215.61277 188.244385,224.144042 177.24028,224.144042 M203.266844,186.371523 L211.427191,186.371523 L211.427191,223.402192 L205.183289,223.402192 C204.132335,223.402192 203.328665,222.536701 203.328665,221.547568 L203.328665,186.371523 L203.266844,186.371523 Z M207.347018,178.272997 C204.379618,178.272997 201.844965,175.800164 201.844965,172.770944 C201.844965,169.803545 204.379618,167.392533 207.347018,167.392533 C210.376238,167.392533 212.725429,169.865366 212.725429,172.770944 C212.725429,175.800164 210.376238,178.272997 207.347018,178.272997 M237.453755,192.986351 C230.838928,192.986351 226.387829,198.179299 226.387829,204.855948 C226.387829,211.532596 230.838928,216.725544 237.453755,216.725544 C244.068582,216.725544 248.519681,211.532596 248.519681,204.855948 C248.45786,198.179299 244.068582,192.986351 237.453755,192.986351 M235.970056,185.629674 C241.286646,185.629674 245.737745,188.34979 247.839652,191.317189 L247.839652,167.825279 L256,167.825279 L256,223.402192 L249.756098,223.402192 C248.705144,223.402192 247.901473,222.536701 247.901473,221.547568 L247.901473,218.456527 C245.799565,221.423926 241.410287,224.144042 236.031876,224.144042 C225.893262,224.144042 218.16566,215.489128 218.16566,204.917768 C218.16566,194.346409 225.831442,185.629674 235.970056,185.629674" fill="#000000"></path>
        <path d="M190.717218,43.565438 L212.0454,6.65841071 C213.281816,4.55650296 212.539966,1.83638704 210.438058,0.599970719 C208.336151,-0.636445605 205.616035,0.105404189 204.379618,2.20731194 L182.804154,39.5470849 C166.297996,32.0049454 147.751751,27.8011299 128.03091,27.8011299 C108.248249,27.8011299 89.7638252,32.0049454 73.2576672,39.5470849 L51.6822024,2.20731194 C50.445786,0.105404189 47.7256701,-0.636445605 45.6237624,0.599970719 C43.5218546,1.83638704 42.7800048,4.55650296 44.0164212,6.65841071 L65.3446028,43.565438 C28.6230379,63.4717408 3.64742816,100.50241 5.62257048e-13,144.209727 L255.938179,144.209727 C252.290751,100.50241 227.25332,63.4717408 190.717218,43.565438 Z M69.0538517,107.735445 C63.1808742,107.735445 58.4206713,102.975242 58.4206713,97.1022649 C58.4206713,91.2292873 63.1808742,86.4690845 69.0538517,86.4690845 C74.9268293,86.4690845 79.6870321,91.2292873 79.6870321,97.1022649 C79.6870321,102.975242 74.9268293,107.735445 69.0538517,107.735445 Z M186.884327,107.735445 C181.01135,107.735445 176.251147,102.975242 176.251147,97.1022649 C176.251147,91.2292873 181.01135,86.4690845 186.884327,86.4690845 C192.757305,86.4690845 197.517508,91.2292873 197.517508,97.1022649 C197.517508,102.975242 192.757305,107.735445 186.884327,107.735445 Z" fill="#3DDC84"></path>
    </g>
</svg>

<svg preserveAspectRatio="xMidYMid" viewBox="0 0 256 225" xmlns="http://www.w3.org/2000/svg">
  <path d="M19.288 192.986c-6.615 0-11.066 5.193-11.066 11.87s4.451 11.87 11.066 11.87c6.615 0 11.066-5.193 11.066-11.87s-4.451-11.87-11.066-11.87m-1.484-7.356c5.317 0 9.768 2.72 11.87 5.687v-4.945h8.16v37.03H31.59a1.86 1.86 0 0 1-1.854-1.854v-3.091c-2.102 2.967-6.491 5.687-11.87 5.687C7.728 224.144 0 215.489 0 204.918c0-10.572 7.666-19.288 17.804-19.288m29.303.742h8.16v5.007c2.226-3.71 6.43-5.75 11.252-5.75 8.593 0 14.157 6.06 14.157 15.456v22.317h-6.244a1.86 1.86 0 0 1-1.854-1.854v-19.103c0-5.873-2.968-9.397-7.728-9.397-5.378 0-9.582 4.204-9.582 12.117v18.237h-6.244a1.86 1.86 0 0 1-1.855-1.854v-35.176h-.062Zm59.287 6.614c-6.615 0-11.066 5.193-11.066 11.87s4.45 11.87 11.066 11.87c6.614 0 11.066-5.193 11.066-11.87s-4.452-11.87-11.066-11.87m-1.484-7.356c5.317 0 9.768 2.72 11.87 5.687v-23.492h8.16v55.577h-6.244a1.86 1.86 0 0 1-1.855-1.854v-3.091c-2.102 2.967-6.49 5.687-11.87 5.687-10.138 0-17.865-8.655-17.865-19.226 0-10.572 7.665-19.288 17.804-19.288m29.303.742h8.16v6.614c1.422-4.203 5.564-6.985 9.768-6.985 1.051 0 2.102.061 3.153.309v8.346c-1.422-.433-2.597-.68-4.08-.68-4.637 0-8.902 3.956-8.902 11.313v18.051h-6.244a1.86 1.86 0 0 1-1.855-1.854v-35.114Zm43.027 30.168c6.491 0 11.128-5.131 11.128-11.684 0-6.615-4.575-11.684-11.128-11.684-6.615 0-11.19 5.13-11.19 11.684.063 6.615 4.637 11.684 11.19 11.684m0 7.604c-10.942 0-19.411-8.531-19.411-19.226 0-10.757 8.469-19.288 19.411-19.288 10.943 0 19.412 8.53 19.412 19.288 0 10.695-8.408 19.226-19.412 19.226m26.027-37.772h8.16v37.03h-6.244a1.86 1.86 0 0 1-1.854-1.854v-35.176h-.062Zm4.08-8.099c-2.967 0-5.502-2.473-5.502-5.502 0-2.967 2.535-5.378 5.502-5.378 3.03 0 5.378 2.472 5.378 5.378 0 3.03-2.349 5.502-5.378 5.502m30.107 14.713c-6.615 0-11.066 5.193-11.066 11.87s4.45 11.87 11.066 11.87c6.615 0 11.066-5.193 11.066-11.87-.062-6.677-4.451-11.87-11.066-11.87m-1.484-7.356c5.317 0 9.768 2.72 11.87 5.687v-23.492H256v55.577h-6.244a1.86 1.86 0 0 1-1.855-1.854v-3.091c-2.101 2.967-6.49 5.687-11.87 5.687-10.138 0-17.865-8.655-17.865-19.226 0-10.572 7.665-19.288 17.804-19.288"/>
  <path fill="#3DDC84" d="m190.717 43.565 21.328-36.907c1.237-2.101.495-4.822-1.607-6.058-2.102-1.236-4.822-.495-6.058 1.607l-21.576 37.34c-16.506-7.542-35.052-11.746-54.773-11.746-19.783 0-38.267 4.204-54.773 11.746L51.682 2.207C50.446.105 47.726-.636 45.624.6s-2.844 3.957-1.608 6.058l21.329 36.907C28.623 63.472 3.647 100.502 0 144.21h255.938c-3.647-43.708-28.685-80.738-65.22-100.645Zm-121.663 64.17c-5.873 0-10.633-4.76-10.633-10.633 0-5.873 4.76-10.633 10.633-10.633 5.873 0 10.633 4.76 10.633 10.633 0 5.873-4.76 10.633-10.633 10.633Zm117.83 0c-5.873 0-10.633-4.76-10.633-10.633 0-5.873 4.76-10.633 10.633-10.633 5.873 0 10.634 4.76 10.634 10.633 0 5.873-4.76 10.633-10.634 10.633Z"/>
</svg>
